X: 1
T: Home With the Girls in the Morning
C:
R: march, song
S: Fiddle Hell Online 2021-11-4 handout
Z: 2022 John Chambers <jc:trillian.mit.edu>
M: C|
L: 1/8
K: Dm
"^A"[|] G2 |\
"Dm"A2d2 d3d | "C"cdcB A2G2 | "Dm"A2d2 ded2 | "Am"c2A2 A2 G2 |\
"Dm"A2d2 d3d | "C"cdcB A2GA | "Am"cBAG FDEF | "Dm"D4 D2 :|
"^B1"[|] DE |\
"Dm"F2F2 "C"E2E2 | "Dm"DEDC A,2DE | F2F2 "C"EDC2 | "Dm"D4 D2 DE |\
"Dm"F2F2 "C"E2E2 | "Dm"DEDC A,2AB | "Am"cBAG FDEF | "Dm"D4 D2 ||
"^B2"[|] DE |\
"Dm"F2F2 "C"E2E2 | "Dm"DEDC A,2DE | F2F2 "C"EDE2 | "D"^F4 F2 DE |\
"Dm"=F2F2 "C"E2E2 | "Dm"DEDC A,2AB | "Am"cBAG FDEF | "Dm"D6 |]
